X:20009
T:Timothy March
T:March of St. Timothy
R:March
C:Judi Morningstar 1985
O:USA
Z:Paul Hardy's Session Tunebook 2015 (see www.paulhardy.net). Creative Commons cc by-nc-sa licenced.
M:4/4
L:1/8
Q:1/4=140
K:D
"D"f3g a2f2|"A7"e3f g2e2|"Bm"d3e f2d2|"A7"d2c2 B2A2|"G"B3c d2B2|"D"A2d2 f2a2|"Em"g3f e2d2|"A7"c2e2 A2g2|
"D"f3g a2f2|"A7"e3f g2e2|"Bm"d3e f2d2|"A7"d2c2 B2A2|"G"B3c d2B2|"D"A2d2 f2a2|"Em"gfed"A7"c2e2|"D"d6||
aa|"A7"g2a2 e2g2|c2e2 A2aa|"D"f2a2 d2f2|A2d2 F2aa|"A7"g2a2 e2g2|c2e2 A2aa|"D"a2A2 B2c2|d2e2 f2aa||
"A7"g2a2 e2g2|c2e2 A2aa|"D"f2a2 d2f2|A2d2 F2A2|"G"B3c d2B2|"D"A2d2 "Bm"f2a2|"Em"gfed "A7"c2e2|"D"d8|]

